!!!COM: Mozart, Wolfgang Amadeus
!!!OTL: Musikalische Würfelspiele, Kontre-Tänze
!!!SCA: K<sup>6</sup> Anh. C30.01 (K<sup>3</sup> Anh. 294d)
**kern	**kern
*staff2	*staff2
*clefF4	*clefG2
*M2/4	*M2/4
*MM110	*MM110
*>[A,A1,A,A2,B]	*>[A,A1,A,A2,B]
*>norep[A,A2,B]	*>norep[A,A2,B]
*>A	*>A
=165	=165
4C	8cc
.	16ee
.	16cc
4r	8g
.	8g
=1	=1
4C	8gg
.	8gg
4r	8ee
.	8cc
=100	=100
4GG	16b
.	16a
.	16g
.	16a
4GG	16b
.	16cc
.	16dd
.	16b
=71	=71
16C	8e 8cc
16CC	.
16EE	8e 8cc
16GG	.
16C	4e 4cc
16E	.
16G	.
16E	.
=25	=25
4D	8dd
.	8ff#
4C 4D	8aa
.	8ff#
=92	=92
4G	8gg
.	8dd
4r	8b
.	8g
=73	=73
4C	8ee
.	8gg
4D	8ff#
.	8aa
=130	=130
*>A1	*>A1
4GG	4g 4b 4gg
16G	4r
16F	.
16E	.
16D	.
=130:|!	=130:|!
*>A2	*>A2
4GG	4g 4b 4gg
16GG	4r
16AA	.
16BB	.
16C#	.
=4||	=4||
*>B	*>B
4D	8d
.	8dd
4C 4D	8ff#
.	8aa
=133	=133
16BB	8dd
16D	.
16G	4gg
16D	.
16BB	.
16D	.
16G	8bb
16D	.
=62	=62
16C	8ee
16GG	.
16E	8ee
16C	.
16c	8gg
16G	.
16E	8ee
16C	.
=126	=126
4GG	8b
.	8dd
16G	4g
16F	.
16E	.
16D	.
=128	=128
16C	8g
16G	.
16E	4cc
16G	.
16C	.
16G	.
16E	8ee
16G	.
=48	=48
4C	8cc
.	16cc
.	16ee
4r	8gg
.	16gg
.	16ee
=108	=108
4G	16ff
.	16aa
.	16ff
.	16dd
4GG	16b
.	16dd
.	16b
.	16g
=146	=146
4C	4cc
4CC	4c
==	==
*-	*-
